X: 1
T: hector's Shadow
C: John Turner 2006
R: hornpipe
N: In tribute to "Sailor" Hector McNeill, founder of Red Springs, NC
Z: 2006 John Chambers <jc:trillian.mit.edu>
M: 4/4
L: 1/8
K: D
|: A2 \
| "D"AFEF DFA=c | "G"B2G2 G2B2 | "A"ABcd efge | "D"fdAF A2B2 | "D"AFEF DFA=c |
| "G"B2G2 G2B2 | "A"ABcd efge | "D"f2d2 d2 || f2 | "G"gfed "A"cdec | "D"d2A2 A3d |
| "G"B2GB "D"A2FA | "G"GFED "A"E2(GB) | "D"AFEF DFA=c | "G"B2G2 G2B2 | "A"ABcd efge | "D"f2d2 d2 :|
